;FLAVOR:Marlin
;TIME:7801
;Filament used: 7.2349m
;Layer height: 0.2
;MINX:28.716
;MINY:38.856
;MINZ:0.24
;MAXX:191.269
;MAXY:181.214
;MAXZ:11.09
;Generated with Cura_SteamEngine 4.8.0
M140 S70
M105
M190 S70
M104 S220
M105
M109 S220
M82 ;absolute extrusion mode
M201 X500.00 Y500.00 Z100.00 E5000.00 ;Setup machine max acceleration
M203 X500.00 Y500.00 Z10.00 E50.00 ;Setup machine max feedrate
M204 P500.00 R1000.00 T500.00 ;Setup Print/Retract/Travel acceleration
M205 X8.00 Y8.00 Z0.40 E5.00 ;Setup Jerk
M220 S100 ;Reset Feedrate
M221 S100 ;Reset Flowrate

G28 ;Home

G92 E0 ;Reset Extruder
G1 Z2.0 F3000 ;Move Z Axis up
G1 X10.1 Y20 Z0.28 F5000.0 ;Move to start position
G1 X10.1 Y200.0 Z0.28 F1500.0 E15 ;Draw the first line
G1 X10.4 Y200.0 Z0.28 F5000.0 ;Move to side a little
G1 X10.4 Y20 Z0.28 F1500.0 E30 ;Draw the second line
G92 E0 ;Reset Extruder
G1 Z2.0 F3000 ;Move Z Axis up

G92 E0
G92 E0
G1 F2700 E-7
;LAYER_COUNT:50
;LAYER:-6
M107
G0 F12000 X37.532 Y41.229 Z0.24
;TYPE:SUPPORT-INTERFACE
G1 F2700 E0
G1 F1800 X37.748 Y41.035 E0.02318
G1 X37.959 Y40.869 E0.04461
G1 X38.232 Y40.68 E0.07111
G1 X38.447 Y40.552 E0.09108
G1 X38.705 Y40.418 E0.11429
G1 X39.008 Y40.287 E0.14064
G1 X39.442 Y40.134 E0.17738
G1 X39.603 Y40.084 E0.19083
G1 X39.727 Y40.055 E0.201
G1 X40.098 Y39.98 E0.23121
G1 X40.372 Y39.943 E0.25328
G1 X40.676 Y39.92 E0.27762
G1 X40.969 Y39.917 E0.30101
G1 X41.257 Y39.933 E0.32403
G1 X41.528 Y39.965 E0.34582
G1 X41.832 Y40.02 E0.37048
G1 X42.118 Y40.092 E0.39402
G1 X42.367 Y40.171 E0.41487
G1 X42.662 Y40.287 E0.44017
G1 X43.1 Y40.497 E0.47895
G1 X43.253 Y40.578 E0.49277
G1 X71.221 Y56.726 E3.07069
G1 X71.821 Y57.024 E3.12417
G1 X72.467 Y57.247 E3.17872
G1 X73.134 Y57.388 E3.23314
G1 X73.815 Y57.443 E3.28768
G1 X74.498 Y57.411 E3.34226
G1 X75.169 Y57.295 E3.39662
G1 X75.823 Y57.094 E3.45123
G1 X76.444 Y56.812 E3.50567
G1 X77.024 Y56.456 E3.56
G1 X77.459 Y56.114 E3.60417
G1 X77.638 Y55.952 E3.62344
G1 X78.254 Y55.407 E3.68909
G1 X78.54 Y55.161 E3.71921
G1 X79.179 Y54.622 E3.78594
G1 X79.504 Y54.354 E3.81956
G1 X80.202 Y53.798 E3.8908
G1 X80.466 Y53.593 E3.91748
G1 X80.493 Y53.58 E3.91987
G1 X80.521 Y53.552 E3.92303
G1 X81.193 Y53.042 E3.99037
G1 X81.554 Y52.778 E4.02607
G1 X82.228 Y52.297 E4.09217
G1 X82.952 Y51.798 E4.16236
G1 X83.226 Y51.614 E4.1887
G1 X84.008 Y51.105 E4.26318
G1 X84.672 Y50.689 E4.32573
G1 X85.397 Y50.252 E4.3933
G1 X85.777 Y50.03 E4.42843
G1 X86.116 Y49.836 E4.45961
G1 X86.854 Y49.424 E4.52708
G1 X87.247 Y49.213 E4.56269
G1 X87.971 Y48.835 E4.62788
G1 X88.342 Y48.647 E4.66108
G1 X88.737 Y48.451 E4.69628
G1 X89.499 Y48.086 E4.76373
G1 X90.265 Y47.734 E4.83102
G1 X91.038 Y47.397 E4.89833
G1 X91.772 Y47.093 E4.96175
G1 X92.194 Y46.923 E4.99807
G1 X92.984 Y46.617 E5.06569
G1 X93.729 Y46.345 E5.129
G1 X94.143 Y46.198 E5.16407
G1 X94.547 Y46.06 E5.19815
G1 X94.956 Y45.925 E5.23253
G1 X95.792 Y45.659 E5.30256
G1 X96.161 Y45.546 E5.33336
G1 X96.563 Y45.43 E5.36676
G1 X97.349 Y45.209 E5.43194
G1 X97.791 Y45.091 E5.46846
G1 X98.639 Y44.879 E5.53823
G1 X99.414 Y44.698 E5.60176
G1 X100.203 Y44.527 E5.6662
G1 X100.977 Y44.373 E5.7292
G1 X101.483 Y44.281 E5.77025
G1 X102.309 Y44.139 E5.83715
G1 X103.113 Y44.017 E5.90207
G1 X103.554 Y43.956 E5.9376
G1 X104.364 Y43.854 E6.00277
G1 X104.839 Y43.801 E6.04092
G1 X105.616 Y43.724 E6.10325
G1 X106.056 Y43.686 E6.1385
G1 X106.894 Y43.624 E6.20558
G1 X107.236 Y43.603 E6.23293
G1 X107.718 Y43.578 E6.27146
G1 X108.132 Y43.561 E6.30453
G1 X108.969 Y43.536 E6.37138
G1 X109.418 Y43.528 E6.40722
G1 X110.227 Y43.525 E6.4718
G1 X110.656 Y43.529 E6.50605
G1 X111.072 Y43.537 E6.53926
G1 X111.904 Y43.562 E6.6057
G1 X112.379 Y43.583 E6.64366
G1 X113.189 Y43.629 E6.70842
G1 X114.013 Y43.69 E6.77438
G1 X114.383 Y43.723 E6.80403
G1 X115.324 Y43.818 E6.87952
G1 X116.151 Y43.917 E6.94601
G1 X116.511 Y43.965 E6.975
G1 X116.957 Y44.027 E7.01095
G1 X117.769 Y44.153 E7.07654
G1 X117.792 Y44.158 E7.07842
G1 X118.517 Y44.28 E7.1371
G1 X118.6 Y44.295 E7.14384
G1 X118.964 Y44.362 E7.17338
G1 X119.822 Y44.532 E7.2432
G1 X120.257 Y44.625 E7.27871
G1 X121.054 Y44.805 E7.34393
G1 X121.475 Y44.906 E7.37849
G1 X122.293 Y45.112 E7.44583
G1 X123.1 Y45.332 E7.5126
G1 X123.829 Y45.543 E7.57318
G1 X124.758 Y45.832 E7.65084
G1 X125.525 Y46.085 E7.71531
G1 X126.327 Y46.364 E7.78309
G1 X127.07 Y46.638 E7.8463
G1 X127.494 Y46.8 E7.88254
G1 X128.257 Y47.105 E7.94813
G1 X129.05 Y47.434 E8.01666
G1 X129.805 Y47.766 E8.0825
G1 X130.582 Y48.122 E8.15072
G1 X131.331 Y48.484 E8.21713
G1 X132.078 Y48.859 E8.28385
G1 X132.784 Y49.228 E8.34744
G1 X133.505 Y49.625 E8.41314
G1 X133.593 Y49.672 E8.4211
G1 X134.285 Y50.066 E8.48467
G1 X135.268 Y50.652 E8.57602
G1 X136.006 Y51.112 E8.64543
G1 X136.833 Y51.654 E8.72436
G1 X137.14 Y51.861 E8.75392
G1 X137.763 Y52.29 E8.8143
G1 X138.497 Y52.815 E8.88634
G1 X138.853 Y53.078 E8.92167
G1 X139.499 Y53.567 E8.98634
G1 X139.854 Y53.842 E9.02219
G1 X140.508 Y54.364 E9.08898
G1 X140.838 Y54.636 E9.12312
G1 X141.458 Y55.159 E9.18787
G1 X141.791 Y55.447 E9.22301
G1 X142.487 Y56.064 E9.29726
G1 X143.013 Y56.48 E9.35079
G1 X143.597 Y56.833 E9.40526
G1 X144.221 Y57.109 E9.45973
G1 X144.876 Y57.305 E9.5143
G1 X145.55 Y57.416 E9.56883
G1 X146.231 Y57.441 E9.62322
G1 X146.912 Y57.38 E9.6778
G1 X147.579 Y57.233 E9.73232
G1 X148.221 Y57.005 E9.78671
G1 X148.78 Y56.724 E9.83665
G1 X176.755 Y40.573 E12.41518
G1 X176.907 Y40.492 E12.42893
G1 X177.218 Y40.337 E12.45666
G1 X177.498 Y40.22 E12.48089
G1 X177.767 Y40.127 E12.50361
G1 X178.066 Y40.044 E12.52838
G1 X178.331 Y39.988 E12.55
G1 X178.614 Y39.947 E12.57282
G1 X178.925 Y39.922 E12.59773
G1 X179.189 Y39.917 E12.61881
G1 X179.486 Y39.931 E12.64254
G1 X179.791 Y39.966 E12.66705
G1 X180.272 Y40.056 E12.70611
G1 X180.409 Y40.087 E12.71732
G1 X180.566 Y40.135 E12.73043
G1 X180.902 Y40.249 E12.75875
G1 X181.169 Y40.358 E12.78177
G1 X181.442 Y40.491 E12.80601
G1 X181.68 Y40.626 E12.82785
G1 X181.922 Y40.784 E12.85092
G1 X182.166 Y40.966 E12.87522
G1 X182.4 Y41.165 E12.89974
G1 X182.588 Y41.348 E12.92068
G1 X182.783 Y41.562 E12.9438
G1 X182.967 Y41.794 E12.96743
G1 X183.247 Y42.203 E13.007
G1 X183.329 Y42.334 E13.01933
G1 X189.573 Y53.149 E14.01619
G1 X189.634 Y53.263 E14.02651
G1 X189.807 Y53.61 E14.05746
G1 X189.918 Y53.876 E14.08047
G1 X190.018 Y54.163 E14.10473
G1 X190.094 Y54.438 E14.1275
G1 X190.151 Y54.708 E14.14953
G1 X190.192 Y54.991 E14.17235
G1 X190.218 Y55.309 E14.19782
G1 X190.223 Y55.566 E14.21834
G1 X190.209 Y55.87 E14.24263
G1 X190.174 Y56.175 E14.26714
G1 X190.086 Y56.645 E14.30531
G1 X190.054 Y56.788 E14.31701
G1 X190.006 Y56.948 E14.33034
G1 X189.892 Y57.283 E14.35859
G1 X189.785 Y57.546 E14.38125
G1 X189.65 Y57.824 E14.40592
G1 X189.514 Y58.064 E14.42794
G1 X189.356 Y58.306 E14.45101
G1 X189.18 Y58.542 E14.47451
G1 X188.978 Y58.781 E14.49949
G1 X188.792 Y58.972 E14.52077
G1 X188.59 Y59.156 E14.54258
G1 X188.33 Y59.362 E14.56906
G1 X187.949 Y59.623 E14.60593
G1 X187.796 Y59.719 E14.62035
G1 X159.829 Y75.866 E17.19816
G1 X159.271 Y76.237 E17.25165
G1 X158.755 Y76.684 E17.30615
G1 X158.299 Y77.192 E17.36064
G1 X157.91 Y77.754 E17.4152
G1 X157.597 Y78.361 E17.46971
G1 X157.362 Y79.001 E17.52414
G1 X157.209 Y79.668 E17.57876
G1 X157.142 Y80.347 E17.63323
G1 X157.162 Y81.028 E17.68761
G1 X157.262 Y81.676 E17.73995
G1 X157.335 Y82.015 E17.76763
G1 X157.5 Y82.845 E17.83518
G1 X157.647 Y83.664 E17.9016
G1 X157.786 Y84.501 E17.96933
G1 X157.903 Y85.315 E18.03497
G1 X158.002 Y86.078 E18.09639
G1 X158.096 Y86.91 E18.16323
G1 X158.181 Y87.83 E18.23698
G1 X158.217 Y88.301 E18.27469
G1 X158.265 Y89.001 E18.33069
G1 X158.293 Y89.535 E18.37338
G1 X158.311 Y89.924 E18.40446
G1 X158.326 Y90.354 E18.43881
G1 X158.338 Y90.81 E18.47522
G1 X158.349 Y91.566 E18.53557
G1 X158.347 Y92.464 E18.60726
G1 X158.331 Y93.243 E18.66945
G1 X158.297 Y94.166 E18.74318
G1 X158.257 Y94.902 E18.80202
G1 X158.189 Y95.84 E18.87709
G1 X158.113 Y96.656 E18.94251
G1 X158.068 Y97.095 E18.97774
G1 X157.98 Y97.848 E19.03825
G1 X157.913 Y98.355 E19.07907
G1 X157.797 Y99.17 E19.14479
G1 X157.738 Y99.543 E19.17493
G1 X157.646 Y100.069 E19.21756
G1 X157.604 Y100.329 E19.23858
G1 X157.514 Y100.829 E19.27913
G1 X157.507 Y100.855 E19.28128
G1 X157.349 Y101.665 E19.34716
G1 X157.259 Y102.088 E19.38168
G1 X157.074 Y102.904 E19.44847
G1 X156.883 Y103.69 E19.51304
G1 X156.79 Y104.054 E19.54303
G1 X156.771 Y104.135 E19.54967
G1 X156.548 Y104.954 E19.61743
G1 X156.314 Y105.762 E19.68457
G1 X156.066 Y106.56 E19.75128
G1 X155.814 Y107.33 E19.81595
G1 X155.667 Y107.759 E19.85215
G1 X155.438 Y108.401 E19.90656
G1 X155.115 Y109.26 E19.97982
G1 X154.779 Y110.11 E20.05278
G1 X154.524 Y110.723 E20.10577
G1 X154.382 Y111.055 E20.1346
G1 X154.111 Y111.672 E20.18839
G1 X153.768 Y112.417 E20.25386
G1 X153.424 Y113.137 E20.31756
G1 X152.998 Y113.988 E20.39352
G1 X152.63 Y114.687 E20.45658
G1 X152.227 Y115.425 E20.5237
G1 X151.806 Y116.166 E20.59173
G1 X151.397 Y116.855 E20.65569
G1 X151.153 Y117.257 E20.69323
G1 X150.723 Y117.939 E20.75759
G1 X150.517 Y118.258 E20.7879
G1 X150.244 Y118.673 E20.82755
G1 X149.782 Y119.355 E20.89331
G1 X149.529 Y119.716 E20.92849
G1 X149.061 Y120.367 E20.99249
G1 X148.543 Y121.066 E21.06194
G1 X148.084 Y121.663 E21.12205
G1 X147.73 Y122.103 E21.16713
G1 X147.308 Y122.629 E21.22096
G1 X146.701 Y123.35 E21.2962
G1 X146.132 Y124.003 E21.36534
G1 X145.568 Y124.627 E21.43248
G1 X144.992 Y125.24 E21.49962
G1 X144.399 Y125.85 E21.56753
G1 X143.811 Y126.435 E21.63374
G1 X143.202 Y127.022 E21.70126
G1 X142.889 Y127.315 E21.73548
G1 X142.257 Y127.892 E21.80379
G1 X141.313 Y128.717 E21.90387
G1 X140.737 Y129.197 E21.96372
G1 X140.015 Y129.779 E22.03775
G1 X139.358 Y130.29 E22.10419
G1 X138.698 Y130.786 E22.17009
G1 X138.379 Y131.018 E22.20158
G1 X138.31 Y131.07 E22.20847
G1 X137.671 Y131.523 E22.271
G1 X137.327 Y131.762 E22.30444
G1 X136.943 Y132.021 E22.34141
G1 X136.267 Y132.468 E22.4061
G1 X135.899 Y132.703 E22.44095
G1 X135.182 Y133.149 E22.50836
G1 X134.47 Y133.574 E22.57455
G1 X134.088 Y133.797 E22.60986
G1 X133.379 Y134.196 E22.6748
G1 X133.018 Y134.394 E22.70766
G1 X132.67 Y134.579 E22.73912
G1 X132.618 Y134.608 E22.74388
G1 X131.897 Y134.981 E22.80868
G1 X131.512 Y135.175 E22.84309
G1 X131.119 Y135.368 E22.87804
G1 X130.388 Y135.715 E22.94263
G1 X129.995 Y135.896 E22.97717
G1 X129.604 Y136.071 E23.01136
G1 X129.202 Y136.247 E23.04639
G1 X128.429 Y136.574 E23.11339
G1 X127.635 Y136.894 E23.18173
G1 X126.878 Y137.182 E23.24638
G1 X126.472 Y137.331 E23.2809
G1 X125.665 Y137.617 E23.34925
G1 X124.875 Y137.879 E23.41568
G1 X124.431 Y138.024 E23.45297
G1 X124.437 Y138.042 E23.45448
G1 X124.238 Y138.117 E23.47146
G1 X123.634 Y138.435 E23.52595
G1 X123.075 Y138.827 E23.58045
G1 X122.57 Y139.287 E23.63497
G1 X122.127 Y139.807 E23.6895
G1 X121.753 Y140.378 E23.74399
G1 X121.454 Y140.992 E23.79851
G1 X121.235 Y141.639 E23.85303
G1 X121.1 Y142.308 E23.90751
G1 X121.05 Y143.03 E23.96528
G1 X121.05 Y175.356 E26.54568
G1 X121.046 Y175.482 E26.55574
G1 X121.022 Y175.859 E26.5859
G1 X120.985 Y176.157 E26.60987
G1 X120.93 Y176.441 E26.63296
G1 X120.854 Y176.732 E26.65697
G1 X120.77 Y176.99 E26.67863
G1 X120.659 Y177.269 E26.7026
G1 X120.537 Y177.527 E26.72538
G1 X120.393 Y177.786 E26.74903
G1 X120.254 Y178.005 E26.76974
G1 X120.056 Y178.271 E26.79621
G1 X119.752 Y178.625 E26.83346
G1 X119.635 Y178.753 E26.8473
G1 X119.541 Y178.84 E26.85752
G1 X119.248 Y179.097 E26.88863
G1 X119.031 Y179.266 E26.91059
G1 X118.8 Y179.422 E26.93284
G1 X118.532 Y179.58 E26.95767
G1 X118.275 Y179.71 E26.98066
G1 X118.006 Y179.825 E27.00402
G1 X117.749 Y179.918 E27.02583
G1 X117.457 Y180.002 E27.05009
G1 X117.196 Y180.058 E27.07139
G1 X116.876 Y180.106 E27.09722
G1 X116.408 Y180.142 E27.13469
G1 X116.216 Y180.149 E27.15003
G1 X103.743 Y180.149 E28.14568
G1 X103.617 Y180.145 E28.15574
G1 X103.24 Y180.121 E28.18589
G1 X102.942 Y180.084 E28.20987
G1 X102.658 Y180.029 E28.23296
G1 X102.367 Y179.953 E28.25696
G1 X102.107 Y179.868 E28.2788
G1 X101.83 Y179.758 E28.30259
G1 X101.571 Y179.635 E28.32548
G1 X101.313 Y179.492 E28.34902
G1 X101.094 Y179.353 E28.36973
G1 X100.828 Y179.155 E28.3962
G1 X100.474 Y178.851 E28.43345
G1 X100.346 Y178.734 E28.44729
G1 X100.259 Y178.64 E28.45751
G1 X100 Y178.345 E28.48885
G1 X99.833 Y178.13 E28.51058
G1 X99.674 Y177.894 E28.5333
G1 X99.519 Y177.631 E28.55767
G1 X99.389 Y177.374 E28.58066
G1 X99.273 Y177.104 E28.60411
G1 X99.181 Y176.848 E28.62583
G1 X99.097 Y176.556 E28.65008
G1 X99.041 Y176.295 E28.67139
G1 X98.993 Y175.975 E28.69722
G1 X98.956 Y175.497 E28.73549
G1 X98.95 Y175.329 E28.74891
G1 X98.95 Y143.032 E31.32699
G1 X98.908 Y142.364 E31.38042
G1 X98.779 Y141.693 E31.43497
G1 X98.566 Y141.044 E31.48949
G1 X98.274 Y140.427 E31.54398
G1 X97.906 Y139.852 E31.59847
G1 X97.468 Y139.328 E31.65299
G1 X96.968 Y138.864 E31.70744
G1 X96.412 Y138.465 E31.76207
G1 X95.812 Y138.141 E31.8165
G1 X95.181 Y137.897 E31.8705
G1 X94.333 Y137.616 E31.94181
G1 X93.53 Y137.333 E32.00978
G1 X92.67 Y137.012 E32.08305
G1 X91.902 Y136.71 E32.14893
G1 X91.595 Y136.585 E32.17539
G1 X90.979 Y136.319 E32.22895
G1 X90.797 Y136.246 E32.2446
G1 X90.325 Y136.04 E32.28571
G1 X89.625 Y135.722 E32.34708
G1 X88.823 Y135.339 E32.41803
G1 X88.452 Y135.157 E32.45101
G1 X88.051 Y134.955 E32.48685
G1 X87.313 Y134.57 E32.5533
G1 X86.529 Y134.146 E32.62445
G1 X85.847 Y133.759 E32.68704
G1 X85.467 Y133.537 E32.72217
G1 X84.758 Y133.112 E32.78816
G1 X84.034 Y132.663 E32.85616
G1 X83.672 Y132.428 E32.89061
G1 X82.961 Y131.958 E32.95865
G1 X82.613 Y131.721 E32.99226
G1 X81.914 Y131.23 E33.06044
G1 X81.326 Y130.804 E33.1184
G1 X80.532 Y130.206 E33.19775
G1 X79.896 Y129.709 E33.26218
G1 X79.234 Y129.174 E33.33012
G1 X78.618 Y128.655 E33.39442
G1 X78.002 Y128.119 E33.4596
G1 X77.64 Y127.797 E33.49827
G1 X77.064 Y127.271 E33.56054
G1 X76.735 Y126.962 E33.59657
G1 X76.117 Y126.366 E33.6651
G1 X75.531 Y125.78 E33.73126
G1 X74.951 Y125.179 E33.79793
G1 X74.373 Y124.562 E33.86541
G1 X73.809 Y123.937 E33.93262
G1 X73.252 Y123.297 E34.00034
G1 X72.756 Y122.706 E34.06193
G1 X72.168 Y121.982 E34.13638
G1 X71.94 Y121.695 E34.16564
G1 X71.934 Y121.684 E34.16664
G1 X71.369 Y120.948 E34.24071
G1 X70.902 Y120.316 E34.30343
G1 X70.407 Y119.627 E34.37116
G1 X70.175 Y119.292 E34.40368
G1 X69.704 Y118.595 E34.47083
G1 X69.449 Y118.205 E34.50803
G1 X69.009 Y117.512 E34.57356
G1 X68.806 Y117.188 E34.60408
G1 X68.616 Y116.876 E34.63323
G1 X68.186 Y116.15 E34.70059
G1 X67.95 Y115.74 E34.73835
G1 X67.732 Y115.349 E34.77409
G1 X67.339 Y114.628 E34.83963
G1 X66.929 Y113.841 E34.91047
G1 X66.573 Y113.131 E34.97387
G1 X66.384 Y112.74 E35.00854
G1 X66.192 Y112.331 E35.0446
G1 X65.852 Y111.59 E35.10968
G1 X65.515 Y110.815 E35.17714
G1 X65.193 Y110.04 E35.24413
G1 X65.044 Y109.666 E35.27627
G1 X64.885 Y109.262 E35.31093
G1 X64.587 Y108.469 E35.37855
G1 X64.332 Y107.755 E35.43907
G1 X64.035 Y106.876 E35.51313
G1 X63.781 Y106.072 E35.58044
G1 X63.528 Y105.223 E35.65115
G1 X63.428 Y104.869 E35.68052
G1 X63.207 Y104.045 E35.74862
G1 X63.146 Y103.802 E35.76862
G1 X63.033 Y103.347 E35.80604
G1 X63.004 Y103.234 E35.81535
G1 X62.906 Y102.822 E35.84916
G1 X62.712 Y101.957 E35.91992
G1 X62.556 Y101.187 E35.98263
G1 X62.467 Y100.724 E36.02027
G1 X62.395 Y100.324 E36.05271
G1 X62.352 Y100.068 E36.07343
G1 X62.287 Y99.683 E36.1046
G1 X62.262 Y99.542 E36.11603
G1 X62.205 Y99.18 E36.14528
G1 X62.155 Y98.813 E36.17485
G1 X62.084 Y98.337 E36.21327
G1 X62.013 Y97.795 E36.2569
G1 X61.925 Y97.025 E36.31877
G1 X61.847 Y96.243 E36.3815
G1 X61.84 Y96.14 E36.38974
G1 X61.805 Y95.74 E36.42179
G1 X61.747 Y94.939 E36.4859
G1 X61.72 Y94.499 E36.52109
G1 X61.687 Y93.76 E36.58014
G1 X61.668 Y93.214 E36.62375
G1 X61.654 Y92.454 E36.68442
G1 X61.65 Y91.648 E36.74876
G1 X61.656 Y91.19 E36.78532
G1 X61.662 Y91.19 E36.7858
G1 X61.663 Y90.718 E36.82348
G1 X61.691 Y89.871 E36.89113
G1 X61.733 Y89.033 E36.95811
G1 X61.789 Y88.204 E37.02443
G1 X61.824 Y87.783 E37.05815
G1 X61.861 Y87.367 E37.09149
G1 X61.924 Y86.748 E37.14116
G1 X61.998 Y86.083 E37.19457
G1 X62.105 Y85.258 E37.26097
G1 X62.214 Y84.509 E37.32139
G1 X62.348 Y83.694 E37.38732
G1 X62.359 Y83.663 E37.38995
